X:12
T:Calibre 12
I:last changed 14/2/2016
F:http://www.campin.me.uk/Music/Edinbal.abc
C:Ronan Robert
M:6/8
L:1/8
P:AABB
K:AMin
P:A
EAE cBA|edc fed|   adf BeA|[1 Bcd  cBA:|\
                           [2 BcB  A3 ||
P:B
fdf afd|ece aec|[1 ede bed|   B2c- c2d:|\
                [2 EDE BED|   ede  a3 |]

